X: 1
T: Three Around Three
R: Reel
C: trad. England
M: C|
L: 1/8
K: G
Bc |\
"G"d2BA G2G2 | "D"A2BA "G"G2D2 | "C"EDEF "G"G2AB | "Am"c2B2 "D"B2A2 |
"G"d2BA G2G2 | "D"A2BA "G"G2D2 | "C"EDEF "D"G2Ac | "G"B2G2 G2 :|
|: Bc |\
"G"d2ef "Em"gfed | "C"e2e2 efge | "G"d2B2    B2AG | "D"FGAB A3B |
"G"d2ef "Em"gfed | "C"e2e2 e3d  | "C"efge "D"fgaf | "G"g2g2 g2 :|
